X:12008
T:Lord Inchiquin
T:Planxty Inchiquin
R:Waltz
C:Turlough O'Carolan, 1691?
O:Ireland
M:3/4
L:1/8
Q:1/4=120
K:D
A2|"D"d2 de fe|"G"d2 ed cB|"D"A2 F2 A2|"D"f4 e2|"Bm"d2 ed cB|"D"A2 G2 F2|"G"G2 BA GF|"A"E4 ag|
"D"f3e d2|"G"d2 c2 B2|"D"A2 F2 A2|"D"f4 e2|"Bm"d2 ed cB|"D"Ad3 F2|"A"E4 D2|"D"D4:|
A2|"A"AB cd e2|"A"e2 d2 e2|"D"f2 d2 f2|"A"e4 d2|"D"de fg a2|"A"a2 b2 g2|"D"f3d f2|"A"e4 d2|
"D"de fg a2|"A"a2 b2 g2|"D"f3g e2|"D"d4 f2|"Em"gf e2 e2|"D"e2 f2 d2|"G"c2 d2 B2|"D"A2 a2 g2|
"D"f3e d2|"Bm"d2 c2 B2|"D"A2 F2 A2|"Em"g4 fe|"G"d2 ed cB|"D"Ad3 F2|"A"E4 D2|"D"D4|]

